public/images/book.svg

<svg width="1184" height="766" viewBox="0 0 1184 766" fill="none" xmlns="http://www.w3.org/2000/svg">
<g clip-path="url(#clip0_358_49)">
<path d="M1125.82 708.394C1125.79 718.533 1117.55 726.732 1107.42 726.707L596.769 725.444C586.632 725.419 578.433 717.179 578.458 707.04L580.072 54.5467C580.097 44.4075 588.337 36.2102 598.474 36.2352L1109.12 37.4983C1119.26 37.5234 1127.46 45.7614 1127.43 55.9006L1125.82 708.394Z" fill="#EDF7FF"/>
<path d="M596.812 708.754C595.893 708.752 595.145 708.005 595.148 707.081L596.761 54.5883C596.764 53.6688 597.513 52.9215 598.434 52.9238L1109.08 54.1869C1110 54.1892 1110.75 54.9402 1110.75 55.8597L1109.13 708.355C1109.13 709.276 1108.38 710.021 1107.46 710.019L596.812 708.756L596.812 708.754Z" fill="#FEFFF0"/>
<path d="M22.7859 705.665C22.7609 715.804 30.9582 724.044 41.0974 724.069L551.745 725.332C561.884 725.357 570.122 717.158 570.147 707.019L571.761 54.5259C571.786 44.3867 563.587 36.1487 553.45 36.1236L42.8022 34.8605C32.663 34.8354 24.425 43.0328 24.3999 53.1719L22.7859 705.665Z" fill="#EDF7FF"/>
<path d="M551.788 708.642C552.707 708.644 553.458 707.901 553.461 706.978L555.075 54.4846C555.077 53.565 554.33 52.8141 553.41 52.8118L42.7624 51.5487C41.841 51.5464 41.0919 52.2937 41.0896 53.2132L39.4756 705.708C39.4734 706.629 40.2188 707.379 41.1402 707.381L551.788 708.644L551.788 708.642Z" fill="#FEFFF0"/>
<path d="M636.615 130.891C636.599 137.343 631.357 142.561 624.906 142.545C618.454 142.529 613.236 137.285 613.252 130.833C613.268 124.382 618.512 119.166 624.964 119.182C631.415 119.198 636.631 124.441 636.615 130.891Z" fill="#AED074"/>
<path d="M514.823 130.59C514.807 137.042 520.024 142.285 526.476 142.301C532.928 142.317 538.17 137.099 538.185 130.648C538.201 124.196 532.984 118.954 526.534 118.938C520.08 118.922 514.839 124.14 514.823 130.59Z" fill="#AED074"/>
<path d="M624.926 138.353L526.493 138.11C522.356 138.099 519.01 134.737 519.021 130.6C519.031 126.463 522.393 123.117 526.53 123.128L624.963 123.371C629.1 123.381 632.446 126.744 632.435 130.881C632.425 135.018 629.063 138.363 624.926 138.353Z" fill="#6FAA28"/>
<path d="M229.975 -2.46633L212.418 14.2603L194.945 -2.55298L194.81 52.2068L229.84 52.2935L229.975 -2.46633Z" fill="#EA598F"/>
<path opacity="0.2" d="M229.873 40.1534L194.844 40.0668L194.814 52.206L229.843 52.2927L229.873 40.1534Z" fill="#1D1D1B"/>
<path d="M287.978 25.7702L247.32 25.6697L247.253 53.0496L287.91 53.1501L287.978 25.7702Z" fill="#FFD31A"/>
<path opacity="0.2" d="M287.939 41.01L247.281 40.9094L247.251 53.0487L287.908 53.1493L287.939 41.01Z" fill="#1D1D1B"/>
<path d="M331.703 -2.21435L305.445 -2.2793L305.31 52.4805L331.568 52.5455L331.703 -2.21435Z" fill="#3EAE6D"/>
<path opacity="0.2" d="M331.594 40.4054L305.336 40.3405L305.306 52.4797L331.564 52.5447L331.594 40.4054Z" fill="#1D1D1B"/>
<path d="M1172.31 545.921L1148.64 521.072L1172.44 496.341L1109.54 496.185L1109.42 545.765L1172.31 545.921Z" fill="#3EAE6D"/>
<path d="M1148.78 297.248L1148.92 239.702L1110.17 239.606L1110.03 297.152L1148.78 297.248Z" fill="#EA598F"/>
<path opacity="0.2" d="M1127.15 239.461L1110.17 239.419L1110.03 296.966L1127.01 297.008L1127.15 239.461Z" fill="#1D1D1B"/>
<path d="M1148.39 457.513L1148.53 399.967L1109.78 399.871L1109.64 457.417L1148.39 457.513Z" fill="#F29120"/>
<path opacity="0.2" d="M1126.76 399.726L1109.78 399.684L1109.64 457.23L1126.62 457.272L1126.76 399.726Z" fill="#1D1D1B"/>
<path d="M1187.36 371.078L1187.45 333.913L1109.95 333.721L1109.85 370.887L1187.36 371.078Z" fill="#FFD31A"/>
<path opacity="0.2" d="M1126.93 333.577L1109.95 333.535L1109.85 370.7L1126.84 370.742L1126.93 333.577Z" fill="#1D1D1B"/>
<path opacity="0.2" d="M1126.52 496.033L1109.54 495.991L1109.42 545.572L1126.4 545.614L1126.52 496.033Z" fill="#1D1D1B"/>
<path d="M635.85 440.912C635.834 447.364 630.592 452.582 624.14 452.566C617.688 452.55 612.471 447.306 612.487 440.854C612.503 434.403 617.746 429.189 624.198 429.205C630.65 429.221 635.865 434.46 635.85 440.912Z" fill="#AED074"/>
<path d="M514.057 440.611C514.041 447.063 519.259 452.306 525.71 452.322C532.162 452.338 537.404 447.12 537.42 440.669C537.436 434.217 532.218 428.977 525.768 428.961C519.315 428.945 514.073 434.159 514.057 440.611Z" fill="#AED074"/>
<path d="M624.152 448.296L525.72 448.053C521.583 448.042 518.237 444.68 518.247 440.543C518.257 436.406 521.62 433.06 525.757 433.071L624.189 433.314C628.326 433.324 631.672 436.687 631.662 440.824C631.652 444.959 628.289 448.306 624.152 448.296Z" fill="#6FAA28"/>
<path d="M636.232 285.902C636.216 292.352 630.975 297.57 624.523 297.554C618.071 297.538 612.854 292.295 612.87 285.845C612.885 279.393 618.129 274.175 624.581 274.191C631.032 274.207 636.248 279.451 636.232 285.902Z" fill="#AED074"/>
<path d="M514.44 285.601C514.424 292.051 519.642 297.295 526.093 297.311C532.545 297.326 537.787 292.109 537.803 285.659C537.819 279.207 532.601 273.964 526.151 273.948C519.698 273.932 514.456 279.149 514.44 285.601Z" fill="#AED074"/>
<path d="M624.535 292.857L526.102 292.613C521.966 292.603 518.62 289.241 518.63 285.104C518.64 280.967 522.003 277.621 526.14 277.631L624.572 277.875C628.709 277.885 632.055 281.247 632.045 285.384C632.035 289.521 628.672 292.867 624.535 292.857Z" fill="#6FAA28"/>
<path d="M635.467 595.922C635.451 602.373 630.209 607.591 623.757 607.575C617.306 607.559 612.088 602.315 612.104 595.864C612.12 589.412 617.363 584.194 623.815 584.21C630.267 584.226 635.483 589.47 635.467 595.922Z" fill="#AED074"/>
<path d="M513.674 595.62C513.658 602.072 518.876 607.316 525.328 607.332C531.779 607.347 537.021 602.13 537.037 595.678C537.053 589.226 531.835 583.983 525.385 583.967C518.932 583.951 513.69 589.169 513.674 595.62Z" fill="#AED074"/>
<path d="M623.77 605.607L525.337 605.364C521.2 605.353 517.854 601.991 517.864 597.854C517.875 593.717 521.237 590.371 525.374 590.382L623.807 590.625C627.944 590.635 631.289 593.998 631.279 598.135C631.269 602.27 627.906 605.617 623.77 605.607Z" fill="#6FAA28"/>
</g>
<defs>
<clipPath id="clip0_358_49">
<rect width="1184" height="766" fill="white"/>
</clipPath>
</defs>
</svg>

<svg xmlns="http://www.w3.org/2000/svg" width="1184" height="766" fill="none" xmlns:v="https://vecta.io/nano"><g clip-path="url(#A)"><path d="M1125.82 708.394c-.03 10.139-8.27 18.338-18.4 18.313l-510.651-1.263c-10.137-.025-18.336-8.265-18.311-18.404l1.614-652.493a18.36 18.36 0 0 1 18.402-18.312l510.646 1.263c10.14.025 18.34 8.263 18.31 18.402l-1.61 652.493z" fill="#edf7ff"/><path d="M596.812 708.754a1.67 1.67 0 0 1-1.664-1.673l1.613-652.493a1.67 1.67 0 0 1 1.673-1.664l510.646 1.263a1.68 1.68 0 0 1 1.67 1.673l-1.62 652.495c0 .921-.75 1.666-1.67 1.664l-510.648-1.263v-.002z" fill="#fefff0"/><path d="M22.786 705.665a18.36 18.36 0 0 0 18.312 18.404l510.648 1.263a18.36 18.36 0 0 0 18.402-18.313l1.614-652.493a18.36 18.36 0 0 0-18.311-18.402L42.802 34.861A18.36 18.36 0 0 0 24.4 53.172l-1.614 652.493z" fill="#edf7ff"/><path d="M551.788 708.642a1.67 1.67 0 0 0 1.673-1.664l1.614-652.493a1.67 1.67 0 0 0-1.665-1.673L42.762 51.549a1.67 1.67 0 0 0-1.673 1.665l-1.614 652.495a1.67 1.67 0 0 0 1.665 1.673l510.648 1.263v-.002z" fill="#fefff0"/><g fill="#aed074"><path d="M636.615 130.891c-.016 6.452-5.258 11.67-11.709 11.654s-11.67-5.26-11.654-11.712 5.26-11.667 11.712-11.651 11.667 5.259 11.651 11.709zm-121.792-.301c-.016 6.452 5.201 11.695 11.653 11.711s11.694-5.202 11.709-11.653-5.201-11.694-11.651-11.71-11.695 5.202-11.711 11.652z"/></g><path d="M624.926 138.353l-98.433-.243c-4.137-.011-7.483-3.373-7.472-7.51a7.49 7.49 0 0 1 7.509-7.472l98.433.243c4.137.01 7.483 3.373 7.472 7.51a7.49 7.49 0 0 1-7.509 7.472z" fill="#6faa28"/><path d="M229.975-2.466L212.418 14.26 194.945-2.553l-.135 54.76 35.03.087.135-54.76z" fill="#ea598f"/><path opacity=".2" d="M229.873 40.153l-35.029-.087-.03 12.139 35.029.087.03-12.139z" fill="#1d1d1b"/><path d="M287.978 25.77l-40.658-.101-.067 27.38 40.657.101.068-27.38z" fill="#ffd31a"/><path opacity=".2" d="M287.939 41.01l-40.658-.101-.03 12.139 40.657.101.031-12.139z" fill="#1d1d1b"/><path d="M331.703-2.214l-26.258-.065-.135 54.76 26.258.065.135-54.76z" fill="#3eae6d"/><path opacity=".2" d="M331.594 40.405l-26.258-.065-.03 12.139 26.258.065.03-12.139z" fill="#1d1d1b"/><path d="M1172.31 545.921l-23.67-24.849 23.8-24.731-62.9-.156-.12 49.58 62.89.156z" fill="#3eae6d"/><use href="#B" fill="#ea598f"/><path opacity=".2" d="M1127.15 239.461l-16.98-.042-.14 57.547 16.98.042.14-57.547z" fill="#1d1d1b"/><path d="M1148.39 457.513l.14-57.546-38.75-.096-.14 57.546 38.75.096z" fill="#f29120"/><path opacity=".2" d="M1126.76 399.726l-16.98-.042-.14 57.546 16.98.042.14-57.546z" fill="#1d1d1b"/><path d="M1187.36 371.078l.09-37.165-77.5-.192-.1 37.166 77.51.191z" fill="#ffd31a"/><g fill="#1d1d1b"><path opacity=".2" d="M1126.93 333.577l-16.98-.042-.1 37.165 16.99.042.09-37.165zm-.41 162.456l-16.98-.042-.12 49.581 16.98.042.12-49.581z"/></g><g fill="#aed074"><path d="M635.85 440.912c-.016 6.452-5.258 11.67-11.71 11.654s-11.669-5.26-11.653-11.712a11.682 11.682 0 1 1 23.363.058zm-121.793-.301c-.016 6.452 5.202 11.695 11.653 11.711s11.694-5.202 11.71-11.653-5.202-11.692-11.652-11.708a11.68 11.68 0 0 0-11.711 11.65z"/></g><path d="M624.152 448.296l-98.432-.243c-4.137-.011-7.483-3.373-7.473-7.51s3.373-7.483 7.51-7.472l98.432.243c4.137.01 7.483 3.373 7.473 7.51s-3.373 7.482-7.51 7.472z" fill="#6faa28"/><g fill="#aed074"><path d="M636.232 285.902c-.016 6.45-5.257 11.668-11.709 11.652s-11.669-5.259-11.653-11.709 5.259-11.67 11.711-11.654 11.667 5.26 11.651 11.711zm-121.792-.301c-.016 6.45 5.202 11.694 11.653 11.71s11.694-5.202 11.71-11.652-5.202-11.695-11.652-11.711-11.695 5.201-11.711 11.653z"/></g><path d="M624.535 292.857l-98.433-.244c-4.136-.01-7.482-3.372-7.472-7.509s3.373-7.483 7.51-7.473l98.432.244c4.137.01 7.483 3.372 7.473 7.509s-3.373 7.483-7.51 7.473z" fill="#6faa28"/><g fill="#aed074"><path d="M635.467 595.922c-.016 6.451-5.258 11.669-11.71 11.653s-11.669-5.26-11.653-11.711 5.259-11.67 11.711-11.654 11.668 5.26 11.652 11.712zm-121.793-.302c-.016 6.452 5.202 11.696 11.654 11.712s11.693-5.202 11.709-11.654-5.202-11.695-11.652-11.711-11.695 5.202-11.711 11.653z"/></g><path d="M623.77 605.607l-98.433-.243c-4.137-.011-7.483-3.373-7.473-7.51s3.373-7.483 7.51-7.472l98.433.243c4.137.01 7.482 3.373 7.472 7.51s-3.373 7.482-7.509 7.472z" fill="#6faa28"/></g><defs><clipPath id="A"><path fill="#fff" d="M0 0h1184v766H0z"/></clipPath><path id="B" d="M1148.78 297.248l.14-57.546-38.75-.096-.14 57.546 38.75.096z"/></defs></svg>
